src/assets/svgs/phone.svg

<svg width="40" height="41" viewBox="0 0 40 41" fill="none" xmlns="http://www.w3.org/2000/svg">
<path d="M32.3997 21.9991C32.033 21.9991 31.6497 21.8825 31.283 21.7991C30.5405 21.6355 29.8108 21.4183 29.0997 21.1491C28.3265 20.8678 27.4766 20.8825 26.7135 21.1901C25.9505 21.4978 25.3282 22.0769 24.9663 22.8158L24.5997 23.5658C22.9764 22.6628 21.4847 21.5412 20.1663 20.2325C18.8576 18.9142 17.7361 17.4225 16.833 15.7991L17.533 15.3325C18.272 14.9707 18.851 14.3483 19.1587 13.5853C19.4664 12.8222 19.481 11.9723 19.1997 11.1991C18.9351 10.4865 18.7179 9.75713 18.5497 9.0158C18.4663 8.64913 18.3997 8.2658 18.3497 7.88246C18.1473 6.7085 17.5324 5.64537 16.6157 4.88453C15.699 4.12369 14.5408 3.71514 13.3497 3.73246H8.34968C7.6314 3.72572 6.9201 3.87382 6.2642 4.16668C5.6083 4.45954 5.0232 4.89029 4.54873 5.4296C4.07426 5.96891 3.72157 6.60412 3.51466 7.29199C3.30775 7.97985 3.25148 8.70423 3.34968 9.4158C4.23758 16.3981 7.42639 22.8856 12.4124 27.8535C17.3985 32.8215 23.8975 35.9866 30.883 36.8491H31.5163C32.7454 36.8509 33.932 36.4 34.8497 35.5825C35.377 35.1109 35.7982 34.5328 36.0855 33.8863C36.3728 33.2399 36.5196 32.5399 36.5163 31.8325V26.8325C36.4959 25.6748 36.0744 24.5601 35.3236 23.6786C34.5728 22.7971 33.5394 22.2035 32.3997 21.9991V21.9991ZM33.233 31.9991C33.2327 32.2358 33.182 32.4696 33.0843 32.6852C32.9866 32.9007 32.8441 33.0929 32.6663 33.2491C32.4807 33.4108 32.263 33.5315 32.0275 33.6033C31.792 33.6751 31.544 33.6964 31.2997 33.6658C25.0578 32.8655 19.2601 30.0099 14.8209 25.5496C10.3817 21.0893 7.5537 15.278 6.78301 9.03246C6.75649 8.78833 6.77973 8.54135 6.85135 8.30645C6.92297 8.07155 7.04146 7.85361 7.19968 7.6658C7.35586 7.48802 7.54811 7.34553 7.76364 7.24782C7.97917 7.15012 8.21304 7.09943 8.44968 7.09913H13.4497C13.8373 7.09051 14.2157 7.21726 14.5199 7.45758C14.8241 7.6979 15.035 8.03675 15.1163 8.4158C15.183 8.87135 15.2663 9.32135 15.3663 9.7658C15.5589 10.6444 15.8151 11.5078 16.133 12.3491L13.7997 13.4325C13.6002 13.524 13.4207 13.654 13.2716 13.8151C13.1225 13.9762 13.0067 14.1652 12.9308 14.3711C12.8549 14.5771 12.8205 14.796 12.8294 15.0153C12.8384 15.2347 12.8906 15.45 12.983 15.6491C15.3817 20.7871 19.5118 24.9171 24.6497 27.3158C25.0554 27.4825 25.5106 27.4825 25.9163 27.3158C26.1242 27.2415 26.3152 27.1266 26.4783 26.9778C26.6414 26.829 26.7733 26.6493 26.8663 26.4491L27.8997 24.1158C28.7613 24.4239 29.6407 24.6799 30.533 24.8825C30.9775 24.9825 31.4275 25.0658 31.883 25.1325C32.2621 25.2138 32.6009 25.4247 32.8412 25.7289C33.0815 26.0331 33.2083 26.4116 33.1997 26.7991L33.233 31.9991Z" fill="#fff"/>
</svg>

<svg width="40" height="41" fill="none" xmlns="http://www.w3.org/2000/svg"><path d="M32.4 22c-.367 0-.75-.117-1.117-.2a15.722 15.722 0 0 1-2.183-.65 3.334 3.334 0 0 0-4.134 1.666l-.366.75a20.303 20.303 0 0 1-4.434-3.333 20.301 20.301 0 0 1-3.333-4.434l.7-.466a3.333 3.333 0 0 0 1.667-4.134 17.215 17.215 0 0 1-.65-2.183c-.084-.367-.15-.75-.2-1.134a5 5 0 0 0-5-4.15h-5a5 5 0 0 0-5 5.684 31.667 31.667 0 0 0 27.533 27.433h.633a5 5 0 0 0 3.334-1.266 5 5 0 0 0 1.666-3.75v-5a5 5 0 0 0-4.116-4.834Zm.833 10a1.667 1.667 0 0 1-.567 1.25 1.749 1.749 0 0 1-1.366.416A28.333 28.333 0 0 1 6.783 9.032 1.817 1.817 0 0 1 7.2 7.666a1.667 1.667 0 0 1 1.25-.567h5a1.667 1.667 0 0 1 1.666 1.317c.067.455.15.905.25 1.35.193.878.45 1.742.767 2.583L13.8 13.432a1.666 1.666 0 0 0-.817 2.217A24.15 24.15 0 0 0 24.65 27.316c.405.167.86.167 1.266 0a1.665 1.665 0 0 0 .95-.867l1.034-2.333a22.84 22.84 0 0 0 2.633.767c.444.1.894.183 1.35.25a1.666 1.666 0 0 1 1.317 1.666l.033 5.2Z" fill="#bababa"/></svg>
